app/client/src/assets/icons/blueprintjs/16px/label.svg

<svg xmlns="http://www.w3.org/2000/svg" xml:space="preserve" viewBox="0 0 16 16"><path fill-rule="evenodd" d="M11 2H1c-.55 0-1 .45-1 1v10c0 .55.45 1 1 1h14c.55 0 1-.45 1-1V7l-5-5zm3 10H2V4h8v2H3v1h7v1h4v4zm-3-5V4l3 3h-3zm-8 3h10V9H3v1z" clip-rule="evenodd"/></svg>

<?xml version="1.0" encoding="utf-8"?>
<!-- Generator: Adobe Illustrator 17.1.0, SVG Export Plug-In . SVG Version: 6.00 Build 0)  -->
<!DOCTYPE svg PUBLIC "-//W3C//DTD SVG 1.1//EN" "http://www.w3.org/Graphics/SVG/1.1/DTD/svg11.dtd">
<svg version="1.1" id="Layer_1" xmlns="http://www.w3.org/2000/svg" xmlns:xlink="http://www.w3.org/1999/xlink" x="0px" y="0px"
	 viewBox="0 0 16 16" enable-background="new 0 0 16 16" xml:space="preserve">
<g id="label_2_">
	<g>
		<path fill-rule="evenodd" clip-rule="evenodd" d="M11,2H1C0.45,2,0,2.45,0,3v10c0,0.55,0.45,1,1,1h14c0.55,0,1-0.45,1-1V7L11,2z
			 M14,12H2V4h8v2H3v1h7v1h4V12z M11,7V4l3,3H11z M3,10h10V9H3V10z"/>
	</g>
</g>
</svg>
